X:1
T:Quae est ista
T:Quae est ista
T:La Fagie
T:Source : Trium vocum cantiones---Nürnberg---J.Petreius---1541. Editor : André Vierendeels (23/05/16).
T:Notes : Original clefs : C1, C3, F4 Editorial accidentals above the staff Original note values have been halved Square bracket indicates ligature T notated in Discantus part book, S notated in Tenor part book    
T:©
T:©
T:©
T:©
T:©
T:©
T:©
T:©
T:©
C:La Fagie
Z:©
%%score [ 1 2 3 ]
L:1/8
Q:1/4=99
M:2/2
K:C
V:1 treble nm="Soprano" snm="S"
V:2 treble-8 nm="Tenor" snm="T"
V:3 bass nm="Bass" snm="B"
V:1
 z8 | z8 | z8 | B8 | c4 B2 G2 | A2 B4 A2 | B3 A B2 c2- | c2 BA G3 E | F2 G2 A4 | G4 E2 G2- | %10
w: |||Quae|est i- *||||||
 G2 F2 G4 | A2 B2 c2 A2 | B4 E3 F | GA B3 G A2 | B2 c4 BA | GE A4 G2 | A3 G EFGA | Bc d3 c A2 | %18
w: * * sta,|quae pro- ces- sit|sic- ut _|_ _ _ _ _|* Sol, _ _|_ _ et for-|mo- * * * * *||
 c2 B2 c2 d2 | B4 c4 | B6 A2- | A4 G4 | z2 D3 E F2 | E2 A4 G2 | A3 B c2 d2- | dcBA G2 c2- | %26
w: |||* sa,|tam- * *|quam Hie- ru-|sa- * * *||
 cBAG F2 G2 | E2 A4 G2 | A2 F4 ED | A4 G3 A | B2 c4 BA | G8 | z8 | z2 E2 G4 | F2 D2 F4 | E4 z2 E2 | %36
w: ||||* lem, _ _|_||vi- de-|* runt e-|am fi-|
 D2 G2 F2 D2 | A3 G E2 G2- | G2 FE D2 F2 | E3 F GABc | d3 c BA B2- | B2 A4 G2 | A4 z4 | G8 | %44
w: li- ar Si- *||||||on,|et|
 E4 E4 | F3 G A2 D2 | E3 F G2 C2- | CD E4 D2 | E3 D EF G2- | G2 F2 G3 F | E2 D2 A4 | D4 z4 | %52
w: be- a-|tam _ _ di-|xe- * * *||||* runt e-|am,|
 z2 A2 B3 A | Bc d4 c2 | d2 D2 E2 G2- | GE F2 G3 A | B2 G2 A2 B2 | c4 z2 C2 | D2 E3 FGA | %59
w: et re- *|* * gi- *|nae lau- da- ve-|* * runt e- *||am. Quae|est i- * * *|
 B2 c4 BA | G2 C3 DEF | G2 A2 F4 | E8 | z2 D2 E2 F2 | G2 E2 D2 G2 | A2 B2 c3 B | A2 G2 F4 | E8 | %68
w: |||sta,|quae a- scen-|dit, quae a- scen-|dit per de- *|* * ser-|tum,|
 z8 | z8 | z4 z2 B2 | c2 A2 B2 c2- | c2 BA G2 A2 | F4 E2 A2- | A2 G2 A4 | z8 | z2 A2 B2 d2- | %77
w: ||sic-|ut vir- gu- la|_ _ _ _ _|* * fu-|* * mi,||ex a- ro-|
 dc c2 B2 A2- | AG G2 E2 F2- | FE E4 D2 | E4 z2 c2- | c2 B3 A A2- | A2 G2 A3 F | G2 A2 D2 E2 | %84
w: * * ma- * *|* * ti- bus myr-||rhae, myr-||* * rhae, _|_ _ ex a-|
 F2 G2 A4 | G2 c4 BA | c2 B2 EFGA | G2 A4 G2 | A8 |] %89
w: ro- ma- *|ti- bus _ _|myr- rhae et- * * *|* thu- *|ris.|
V:2
 e8 | f4 e2 c2 | d2 e4 d2 | e3 d/c/ Bcde | A2 e3 d e2 | c2 d3 c cB/A/ | G2 g3 f e2- | e2 d2 e4 | %8
w: Quae|est i- *||||||* * sta,|
 z2 e2 f4 | e3 d c2 B2 | A4 G2 cd | ef g4 f2 | g4 z2 g2- | gf d2 e2 f2 | d2 e2 A3 B | c2 d2 B4 | %16
w: quae pro-|ces- * * *|||sit, quae|_ _ pro- ces- *|||
 A4 z4 | d6 d2 | e3 d e2 f2 | d2 e4 f2 | g3 f d2 f2- | fe c2 e3 d | B2 d3 c A2 | c2 d2 B4 | %24
w: sit|sic- ut|sol et for- mo-||||||
 A2 f2 e2 f2 | d2 g3 fed | e2 A2 d2 B2 | c2 A2 B4 | A4 z2 A2- | ABcd ef g2- | gf e4 d2 | e4 z2 B2 | %32
w: sa, [tam- quam] Hie-|ru- sa- * * *|||lem, Hie-|* * * * * * ru-|* * * sa-|lem, vi-|
 d4 c2 A2 | c4 B4 | z2 B2 A2 d2 | c2 A2 e3 d | B2 d4 cB | A3 B cd e2- | e2 dc B2 A2- | ABcd ef g2 | %40
w: de- * runt|e- am,|fi- li- ae|Si- * * *|||||
 d2 g3 fed | e2 c2 B4 | A2 c4 BA | c2 B3 A c2- | cBBA/B/ c2 A2- | A2 d3 cBA | G2 c2 B2 c2 | %47
w: ||on, et be- *|a- * * *|||* tam di- xe-|
 F2 G2 A2 B2 | c3 B A2 G2 | A4 G4- | G4 z2 A2 | B3 A Bc d2- | d2 c2 d4- | d4 e4 | d3 c BA B2 | %55
w: runt e- * *||* am,|_ et|re- * * * gi-|* * nae|_ lau-|da- * * * ve-|
 c2 d2 G4- | G4 z4 | g3 f ed e2 | f2 g2 c4 | z2 e2 f2 d2 | e4 z2 e2- | ed c4 B2 | c4 z2 G2 | %63
w: runt e- am.|_|Quae _ _ _ est|i- * sta,|quae est i-|sta, quae|_ _ i- *|sta, quae|
 A2 B2 c2 A2 | G2 c2 d2 e2 | f2 d2 c2 f2- | fe e4 d2 | e3 d c2 B2 | c2 d2 G2 A2 | B2 c3 BAG | %70
w: a- scen- dit per|de- ser- * *||||||
 B2 A4 G2 | A4 z2 e2 | f2 d2 e2 f2- | f2 ed c2 d2 | B4 A3 F | G2 A2 F4 | E2 A4 G2 | A4 z4 | z8 | %79
w: |tum, sic-|ut vir- gu- la|_ _ _ _ _|||* fu- *|mi,||
 z4 z2 A2 | B3 c d2 e2 | A2 B2 c4 | B4 z4 | z2 A2 B3 c | d2 e2 c2 f2- | f2 e4 d2 | e3 f g2 e2- | %87
w: ex|a- ro- ma- ti-|bus myr- *|rhae,|ex a- ro-|ma- ti- bus myr-|* rhae et|thu- * * *|
 e2 dc B4 | A8 |] %89
w: |ris|
V:3
 z8 | z8 | z8 | z8 | z8 | z8 | E,8 | F,4 E,2 C,2 | D,2 E,4 D,2 | E,4 z2 E,2 | F,4 E,3 D, | %11
w: ||||||Quae|est i- *||sta, quae|pro- ces- *|
 C,2 B,,2 A,,4 | G,,4 C,3 D, | E,F, G,4 F,2 | G,2 E,2 F,4 | E,2 D,2 E,4 | z2 A,,B,, C,D,E,F, | %17
w: ||||* * sit|sic- * * * * *|
 G,2 D,2 F,4 | E,4 z2 D,2 | G,4 A,3 G, | E,2 G,3 F, D,2 | F,3 E, C,2 E,2- | E,D, B,,2 D,3 C, | %23
w: * * ut|sol, et|for- mo- *||||
 A,,2 F,2 D,2 E,2 | F,3 G, A,2 D,2 | G,3 F, E,D,C,B,, | A,,2 F,2 D,2 E,2 | C,2 F,2 D,2 E,2 | %28
w: sa,tam- quam Hie- ru-|sa- * * *||lem, tam- quam Hie-|ru- sa- * *|
 C,2 D,4 C,B,, | A,,3 B,, C,D,E,F, | G,2 A,2 F,4 | z2 E,2 G,4 | F,2 D,2 F,4 | E,4 z2 E,2 | %34
w: ||* * lem,|vi- de-|* runt e-|am, fi-|
 D,2 G,2 F,2 D,2 | A,3 G, E,2 G,2- | G,2 F,E, D,3 E, | F,G, A,3 G, E,2- | E,2 F,2 G,2 D,2 | %39
w: li- ae Si- *|||||
 A,4 z4 | G,8 | E,4 E,4 | F,3 G, A,2 D,2 | E,3 F, G,2 C,2- | C,D, E,2 C,4 | D,3 E, F,2 G,2 | %46
w: on,|et|be- a-||* * tam di-|* * * xe-||
 E,2 A,2 G,2 A,2- | A,G, E,2 F,2 G,2 | C,4 z4 | z2 D,2 E,3 D, | E,F, G,4 F,2 | G,2 D,2 D,E,F,G, | %52
w: |* * runt e- *|am,|et re- *|* * gi- *|nae lau- da- * * *|
 A,4 G,3 F, | G,A, B,2 G,2 A,2 | D,2 G,3 F, E,2- | E,2 D,2 G,3 F, | E,D, E,2 F,2 G,2 | C,8 | %58
w: * ve- *||||* * runt e- *|am,|
 z2 C,3 D,E,F, | G,2 A,2 F,4 | E,2 A,,3 B,,C,D, | E,2 F,2 D,4 | C,8 | z8 | z8 | z8 | %66
w: quae _ _ _|_ _ est|i- * * * *||sta,||||
 z2 G,2 A,2 B,2 | C3 B, A,2 G,2 | F,4 E,2 C,2 | D,2 E,2 F,3 E, | D,2 C,2 B,,4 | A,,4 z4 | z8 | z8 | %74
w: quae a- scen-|dit _ per de-|ser- * *|||tum,|||
 z2 E,2 F,2 D,2 | E,2 F,4 E,D, | C,2 D,2 B,,4 | A,,4 z2 D,2 | E,3 F, G,2 A,2 | D,2 E,2 F,4 | %80
w: sic- ut vir-|gu- la _ _|_ _ fu-|mi ex|a- ro- ma- ti-|bus myr- *|
 E,2 G,4 F,E, | F,2 G,2 E,2 C,2 | D,2 E,2 F,2 D,2 |"^#" E,2 F,2 G,4 | z2 E,2 F,2 D,2 | E,4 F,4 | %86
w: |* * rhae et|thu- * * *|* * ris,|et thu- *||
 E,8- | E,8 | A,,8 |] %89
w: ||ris.|

